X: 8
T: Tobin's Favourite
Z: Aaron Bergen
S: https://thesession.org/tunes/308#setting48623
R: jig
M: 6/8
L: 1/8
K: Dmaj
|:F|"D" DFA dcd|ecA cde|"G" fdf gfg|ecA GFE|
"D" DFA dcd|ecA cde|"A" (3(fga) f gec|"D" edc d2:|
|:"A" dfa agf|"G" (3(efg) e efg|fdf gfg|ecA GFE|
"D" DFA dcd|ecA cde|"A" (3(fga) f gec|"D" edc d3:|

